X:1
T:Tautiska giesme
T:Tautiška giesmė
T:Vincas Kudirka
T:Litauens nasjonalsang
C:Vincas Kudirka
%%score [ 1 2 3 4 ]
L:1/8
Q:1/4=80
M:4/4
K:A
V:1 treble nm="Soprano"
V:2 treble nm="Alto"
V:3 treble-8 nm="Tenor"
V:4 bass nm="Bass"
V:1
"^Maestoso"!f! A3 E A2 B2 | c2 B2 A2 B2 | c3 B c2 d2 | (e2 f2) e2 z2 | f3 e d2 c2 | B2 A2 G2 d2 |1 %6
w: 1.Lie- tu- va, Tė-|vy- ne mū- sų,|Tu did- vy- rių|že- * me,|iš pra- ei- ties|Ta- vo sū- nūs|
w: 2.Te- gul Ta- vo|vai- kai ei- na|vien ta- kais do-|ry- * bės,|te- gul dir- ba|Ta- vo nau- dai|
 c3 B A2 B2 | c4 B4 :|2 c3 B A2 G2 | A4 A4 |:!p! B3 A G2 A2 | B3 c B2- B z |!<(! d3 c B2 c2 | %13
w: te stip- ry- bę|se- mia.|ir žmo- nių gė-|ry- bei.|1.Te- gul sau- lė|Lie- tu- voj _|tam- su- mas pra-|
w: ||||2.Te- gul mei- lė|Lie- tu- vos _|de- ga mū- sų|
 d3 e d2- d z!<)! |!f! c2 f2 e2 z2 | A2 d2 c2 z2 |1 G3 d c2 B2 | (G2 F2) (G2 A2) :|2 %18
w: ša- li- na, _|ir švie- sa,|ir tie- sa|mūs žings- nius te-|ly- * di! _|
w: šir- dy- se, _|var- dan tos|Lie- tu- vos|||
!>(! G3 d c2 A2 || (c4 B4)!>)! | !fermata!A8 |] %21
w: vie- ny- bė te-|žy- *|di!|
w: |||
V:2
!f! A3 E E2 E2 | E2 E2 E2 G2 | A3 B A2 A2 | A4 A2 z2 | A3 A G2 A2 | F2 F2 E2 E2 |1 E3 E C2 F2 | %7
w: 1.Lie- tu- va, Tė-|vy- ne mū- sų,|Tu did- vy- rių|že- me,|iš pra- ei- ties|Ta- vo sū- nūs|te stip- ry- bę|
w: 2.Te- gul Ta- vo|vai- kai ei- na|vien ta- kais do-|ry- bės,|te- gul dir- ba|Ta- vo nau- dai||
 E4 E4 :|2 E3 F E2 E2 | E4 E4 |:!p! G3 F E2 F2 | G3 A G2- G z |!<(! B3 A G2 A2 | G3 G G2- G z!<)! | %14
w: se- mia.|ir žmo- nių gė-|ry- bei.|1.Te- gul sau- lė|Lie- tu- voj _|tam- su- mas pra-|ša- li- na, _|
w: |||2.Te- gul mei- lė|Lie- tu- vos _|de- ga mū- sų|šir- dy- se, _|
!f! A2 A2 A2 z2 | F2 F2 F2 z2 |1 E3 E E2 E2 | (E2 ^D2) (E2 F2) :|2!>(! E3 E E2 E2 || (A4 G4)!>)! | %20
w: ir švie- sa,|ir tie- sa|mūs žings- nius te-|ly- * di! _|vie- ny- bė te-|žy- *|
w: var- dan tos|Lie- tu- vos|||||
 !fermata!E8 |] %21
w: di!|
w: |
V:3
!f! A3 E A2 G2 | A2 d2 c2 e2 | e3 e e2 e2 | (c2 d2) c2 z2 | d3 e e2 e2 | d2 B2 B2 B2 |1 %6
w: 1.Lie- tu- va, Tė-|vy- ne mū- sų,|Tu did- vy- rių|že- * me,|iš pra- ei- ties|Ta- vo sū- nūs|
w: 2.Te- gul Ta- vo|vai- kai ei- na|vien ta- kais do-|ry- * bės,|te- gul dir- ba|Ta- vo nau- dai|
 A3 G A2 A2 | A4 G4 :|2 A3 A c2 B2 | c4 c4 |:!p! B3 B B2 B2 | B3 B B2- B z |!<(! e3 e e2 e2 | %13
w: te stip- ry- bę|se- mia.|ir žmo- nių gė-|ry- bei.|1.Te- gul sau- lė|Lie- tu- voj _|tam- su- mas pra-|
w: ||||2.Te- gul mei- lė|Lie- tu- vos _|de- ga mū- sų|
 e3 e e2- e z!<)! |!f! e2 d2 c2 z2 | c2 B2 A2 z2 |1 B3 G A2 A2 | B4 B4 :|2!>(! B3 G A2 c2 || %19
w: ša- li- na, _|ir švie- sa,|ir tie- sa|mūs žings- nius te-|ly- di!|vie- ny- bė te-|
w: šir- dy- se, _|var- dan tos|Lie- tu- vos||||
 (e4 d4)!>)! | !fermata!c8 |] %21
w: žy- *|di!|
w: ||
V:4
!f! A,3 E, C,2 E,2 | A,2 G,2 A,2 E,2 | A,3 G, =G,2 F,2 | (E,2 D,2) A,2 z2 | %4
w: 1.Lie- tu- va, Tė-|vy- ne mū- sų,|Tu did- vy- rių|že- * me,|
w: 2.Te- gul Ta- vo|vai- kai ei- na|vien ta- kais do-|ry- * bės,|
 [D,D]3 [C,C] [B,,B,]2 [A,,A,]2 | D,2 ^D,2 E,2 [G,,G,]2 |1 [A,,A,]3 E, F,2 D,2 | E,4 E,4 :|2 %8
w: iš pra- ei- ties|Ta- vo sū- nūs|te stip- ry- bę|se- mia.|
w: te- gul dir- ba|Ta- vo nau- dai|||
 [A,,A,]3 D, E,2 E,2 | [A,,A,]4 [A,,A,]4 |:!p! E,3 E, E,2 E,2 | E,3 E, E,2- E, z | %12
w: ir žmo- nių gė-|ry- bei.|1.Te- gul sau- lė|Lie- tu- voj _|
w: ||2.Te- gul mei- lė|Lie- tu- vos _|
!<(! G,3 A, D2 C2 | B,3 C B,2- B, z!<)! |!f! A,2 D,2 A,2 z2 | F,2 B,,2 F,2 z2 |1 B,,3 B,, C,2 C,2 | %17
w: tam- su- mas pra-|ša- li- na, _|ir švie- sa,|ir tie- sa|mūs žings- nius te-|
w: de- ga mū- sų|šir- dy- se, _|var- dan tos|Lie- tu- vos||
 (B,,2 A,2) (G,2 F,2) :|2!>(! B,,3 B,, C,2 F,2 || E,8!>)! | !fermata![A,,A,]8 |] %21
w: ly- * di! _|vie- ny- bė te-|žy-|di!|
w: ||||

